X:1
T:Title
L:1/8
M:4/4
I:linebreak $
K:G
V:1 treble nm="Voice"
V:1
"G" PBAGB d2 ef | ggdg edgd | BAGB"D" dfga |1"G" gedB"D" ABGA :|2"G" gedB AB G2 |:"G" PB2 AG EGDB | %6
 DBGB"D" AGAc |"G" PB2 AG EGDB | DBGB"D" AFGA :| %9
